icon/lg/naiveui.svg

<?xml version="1.0" encoding="UTF-8"?>
<svg viewBox="0 0 256 312" version="1.1" xmlns="http://www.w3.org/2000/svg" xmlns:xlink="http://www.w3.org/1999/xlink" preserveAspectRatio="xMidYMid" height="1em" width="1em">
  <g>
    <path d="M181.251596,154.622337 C181.425452,153.583221 181.52023,152.532414 181.535117,151.47896 L181.535117,249.67557 L130.082361,202.623541 L104.195733,179.017402 L88.6144483,164.693468 L81.6866935,158.369734 L79.1350116,156.039938 L78.9501071,155.879687 C78.3214319,155.374281 77.7174105,154.844222 77.1380431,154.36347 C76.5586757,153.882719 76.0532701,153.463602 75.3629601,153.67316 C74.8708016,153.853293 74.5039451,154.271231 74.3891298,154.782587 L74.3891298,62.3303434 L74.9191893,62.8110951 L85.483399,72.3644936 C91.0428606,77.2952799 96.65163,82.2260662 102.198765,87.1568526 C110.088023,94.224313 117.952627,101.332863 125.792577,108.482503 C131.99715,114.120036 138.193505,119.765786 144.381642,125.419754 C151.777821,132.162605 159.075385,138.979417 166.471564,145.672959 C169.799845,148.680739 173.15278,151.626884 176.518042,154.585356 C177.233006,155.214031 177.935643,155.818052 178.662934,156.459054 C179.162731,156.822432 179.813247,156.906069 180.388709,156.68094 C180.730355,156.491769 180.979766,156.171097 181.079019,155.793398 C181.177635,155.324974 181.177635,155.004472 181.251596,154.622337 Z" fill="#4C9717"/>
    <path d="M74.2781871,155.324974 C74.1384892,156.445072 74.0972415,157.57526 74.1549174,158.702562 C74.1549174,190.136325 74.1549174,221.570088 74.3891298,252.991524 L74.3891298,264.184409 C74.115361,269.586537 71.4664634,274.591013 67.1532008,277.855014 C58.7585371,284.869057 50.9309138,292.53643 42.8320972,299.907956 C39.4421816,302.989697 36.07692,306.071439 32.5883886,309.079218 C29.0998573,312.086998 20.1258262,312.456807 15.158059,308.302619 C11.3781185,305.021914 7.85847549,301.452815 4.63083016,297.627467 C1.78274695,294.777451 0.136955145,290.943154 0.0328719089,286.915334 C0.0328719089,286.027792 -0.0410898861,285.053962 0.0328719089,283.981516 C0.0328719089,282.132471 0.0328719089,280.283426 0.094506738,278.422054 C0.156141567,273.121459 0.094506738,267.808537 0.094506738,262.507941 L0.094506738,89.6345727 C0.0838117467,88.3133386 0.241216457,86.9961097 0.562931439,85.7145976 C0.889976796,84.5998882 1.30208564,83.5119209 1.79562802,82.4602786 C2.48712304,80.9152896 3.32072412,79.4379174 4.28567512,78.0472248 L24.0088204,58.3240795 L36.5699986,45.7752283 C37.2383135,45.0997675 38.0025897,44.5265603 38.8381603,44.074107 C40.0556788,43.3892748 41.4040692,42.9692155 42.7951164,42.8414104 L42.7951164,42.8414104 C46.9205324,42.0814833 51.181331,42.8669446 54.7646002,45.0479373 L54.7646002,45.0479373 C55.6835706,45.6087661 56.5463393,46.2568746 57.340936,46.983271 L74.3891298,62.2933625 L74.3891298,154.745606 C74.338507,154.935865 74.3014332,155.129473 74.2781871,155.324974 Z" fill="#5FBC21"/>
    <path d="M253.401327,230.778331 L217.172375,264.061139 C217.030268,264.168213 216.882098,264.266993 216.728604,264.356986 L216.593007,264.455602 L216.346468,264.603526 C209.776302,268.606473 201.349901,267.776905 195.686473,262.569576 L193.504601,260.658897 L181.485809,249.67557 L181.485809,46.4532114 C181.68304,44.7397632 181.978887,43.0263149 182.311716,41.3498476 C183.174603,36.9737747 187.020616,34.8042287 189.954434,32.0676423 C196.327476,26.1506987 202.897748,20.4556405 209.394059,14.6619666 C213.868748,10.6680296 218.33111,6.66176574 222.842779,2.69248275 C226.775081,-0.771394647 234.393146,-0.598817126 238.091236,1.54607493 C239.028683,2.09314605 239.890646,2.76033841 240.655245,3.53071643 L244.821759,7.54930728 L248.187021,10.7666454 L251.256435,13.7374441 C252.088512,14.5051168 252.825206,15.3701111 253.450635,16.31378 C254.906183,18.7089859 255.634237,21.4755925 255.54622,24.2769999 C255.484585,42.3483318 255.620181,60.4196637 255.657162,78.5156495 C255.731124,109.209794 255.796868,139.903939 255.854394,170.598084 C255.854394,186.327293 255.883157,202.052392 255.940682,217.773382 C255.940682,218.500673 255.940682,219.215637 255.940682,219.930601 C256.125587,224.614848 256.026971,227.708917 253.401327,230.778331 Z" fill="#5FBC21"/>
  </g>
</svg>

<svg width="256" height="312" xmlns="http://www.w3.org/2000/svg" preserveAspectRatio="xMidYMid"><path d="M181.252 154.622c.173-1.039.268-2.09.283-3.143v98.197l-51.453-47.052-25.886-23.607-15.582-14.324-6.927-6.323-2.552-2.33-.185-.16c-.629-.506-1.233-1.036-1.812-1.517-.58-.48-1.085-.9-1.775-.69a1.54 1.54 0 0 0-.974 1.11V62.33l.53.481 10.564 9.553c5.56 4.931 11.169 9.862 16.716 14.793a3585.593 3585.593 0 0 1 23.594 21.326c6.204 5.637 12.4 11.283 18.589 16.937 7.396 6.743 14.693 13.56 22.09 20.253 3.328 3.008 6.68 5.954 10.046 8.912.715.629 1.418 1.233 2.145 1.874.5.363 1.15.447 1.726.222.341-.19.59-.51.69-.888.099-.468.099-.789.173-1.17Z" fill="#4C9717"/><path d="M74.278 155.325c-.14 1.12-.18 2.25-.123 3.378 0 31.433 0 62.867.234 94.289v11.192a18.306 18.306 0 0 1-7.236 13.671c-8.394 7.014-16.222 14.681-24.32 22.053-3.39 3.082-6.756 6.163-10.245 9.171-3.488 3.008-12.462 3.378-17.43-.776-3.78-3.281-7.3-6.85-10.527-10.676a15.73 15.73 0 0 1-4.598-10.712c0-.887-.074-1.861 0-2.933 0-1.85 0-3.699.062-5.56.061-5.3 0-10.613 0-15.914V89.635c-.011-1.322.146-2.639.468-3.92.327-1.115.74-2.203 1.233-3.255a27.317 27.317 0 0 1 2.49-4.413l19.723-19.723L36.57 45.775a9.664 9.664 0 0 1 2.268-1.7 9.923 9.923 0 0 1 3.957-1.234c4.126-.76 8.386.026 11.97 2.207.919.56 1.781 1.209 2.576 1.935l17.048 15.31v92.453c-.05.19-.088.383-.11.579ZM253.401 230.778l-36.229 33.283c-.142.107-.29.206-.443.296l-.136.099-.247.148a17.258 17.258 0 0 1-20.66-2.034l-2.181-1.911-12.02-10.983V46.453c.198-1.713.494-3.427.827-5.103.863-4.376 4.709-6.546 7.642-9.282 6.373-5.917 12.944-11.612 19.44-17.406 4.475-3.994 8.937-8 13.449-11.97 3.932-3.463 11.55-3.29 15.248-1.146.938.547 1.8 1.214 2.564 1.985l4.167 4.018 3.365 3.218 3.07 2.97a14.114 14.114 0 0 1 2.194 2.577 14.46 14.46 0 0 1 2.095 7.963c-.061 18.071.074 36.143.111 54.239.074 30.694.14 61.388.197 92.082 0 15.73.03 31.454.087 47.175v2.158c.185 4.684.086 7.778-2.54 10.847Z" fill="#5FBC21"/></svg>
